dist/img/logo.svg

<svg width="88" height="24" viewBox="0 0 88 24" fill="none" xmlns="http://www.w3.org/2000/svg">
<path d="M7.851 17.4978H10.3601C10.1874 18.6703 9.66941 19.6114 8.80607 20.3213C7.95352 21.0313 6.86355 21.3862 5.53617 21.3862C3.7987 21.3862 2.43894 20.843 1.45689 19.7566C0.485629 18.6595 0 17.2128 0 15.4165C0 13.6202 0.491025 12.1788 1.47307 11.0924C2.45512 9.99529 3.80949 9.44672 5.53617 9.44672C6.7988 9.44672 7.851 9.77479 8.69276 10.4309C9.53451 11.0763 10.0525 11.9368 10.2468 13.0124H7.7215C7.45171 12.0659 6.72326 11.5926 5.53617 11.5926C4.54333 11.5926 3.78251 11.9529 3.25371 12.6736C2.73571 13.3835 2.47671 14.2978 2.47671 15.4165C2.47671 16.5351 2.73571 17.4548 3.25371 18.1755C3.78251 18.8854 4.54333 19.2403 5.53617 19.2403C6.1513 19.2403 6.65851 19.0897 7.05781 18.7886C7.46789 18.4766 7.73229 18.0464 7.851 17.4978Z" fill="#222222"/>
<path d="M22.012 9.65647V11.7701H18.4184V21.1765H16.0064V11.7701H12.4127V9.65647H22.012Z" fill="#222222"/>
<path d="M28.6894 14.8195H29.1427L31.587 9.65647H34.0313L28.4952 21.1765H26.0832L27.7343 17.7237L23.4608 9.65647H25.9861L28.6894 14.8195Z" fill="#222222"/>
<path d="M45.1637 19.0306H46.8149V24H44.4677V21.1765H36.8757V24H34.5285V19.0306H35.7263C36.6436 17.4064 37.1023 15.126 37.1023 12.1896V9.65647H45.1637V19.0306ZM42.8165 19.0306V11.8024H39.3362V12.8188C39.3362 15.5079 38.9477 17.5785 38.1707 19.0306H42.8165Z" fill="#222222"/>
<path d="M49.5559 9.65647H51.806V17.6914H52.2268L56.3871 9.65647H59.6408V21.1765H57.3745V12.964H56.9536L52.6963 21.1765H49.5559V9.65647Z" fill="#222222"/>
<path d="M64.3366 21.1765V9.65647H66.7485V14.158H69.4843L71.6048 9.65647H74.0977L71.5077 15.2551L74.2434 21.1765H71.7505L69.5004 16.3361H66.7485V21.1765H64.3366Z" fill="#222222"/>
<path d="M85.5557 21.1765L84.6168 18.0625H80.2137L79.2749 21.1765H76.8953L80.5699 9.65647H84.3092L88 21.1765H85.5557ZM82.0429 11.9637L80.8289 15.965H83.9693L82.7552 11.9637H82.0429Z" fill="#222222"/>
<path d="M38.1583 0H35.629L32.5938 6.05042H35.1231L38.1583 0Z" fill="#222222"/>
</svg>

<svg width="88" height="24" fill="none" xmlns="http://www.w3.org/2000/svg"><path d="M7.851 17.498h2.51c-.174 1.172-.692 2.113-1.555 2.823-.852.71-1.942 1.065-3.27 1.065-1.737 0-3.097-.543-4.08-1.63C.487 18.66 0 17.214 0 15.417c0-1.796.491-3.237 1.473-4.324.982-1.097 2.336-1.645 4.063-1.645 1.263 0 2.315.328 3.157.984.842.645 1.36 1.506 1.554 2.581H7.72c-.27-.946-.998-1.42-2.185-1.42-.993 0-1.753.36-2.282 1.082-.518.71-.777 1.624-.777 2.742 0 1.12.259 2.039.777 2.76.529.71 1.29 1.064 2.282 1.064.615 0 1.123-.15 1.522-.451.41-.312.674-.743.793-1.291ZM22.012 9.656v2.114h-3.594v9.407h-2.412V11.77h-3.593V9.656h9.599ZM28.69 14.82h.453l2.444-5.164h2.444l-5.536 11.52h-2.412l1.651-3.452-4.273-8.068h2.525l2.703 5.163ZM45.164 19.03h1.65V24h-2.346v-2.823h-7.592V24h-2.347v-4.97h1.197c.918-1.624 1.376-3.904 1.376-6.84V9.656h8.062v9.375Zm-2.348 0v-7.228h-3.48v1.017c0 2.689-.388 4.76-1.165 6.212h4.645ZM49.556 9.656h2.25v8.035h.42l4.161-8.035h3.254v11.52h-2.267v-8.212h-.42l-4.258 8.213h-3.14V9.657ZM64.337 21.177V9.657h2.412v4.501h2.735l2.12-4.502h2.494l-2.59 5.6 2.735 5.92h-2.492l-2.25-4.84h-2.752v4.84h-2.412ZM85.556 21.177l-.94-3.114h-4.402l-.94 3.114h-2.379l3.675-11.52h3.74L88 21.176h-2.444Zm-3.513-9.213-1.214 4.001h3.14l-1.214-4.001h-.712ZM38.158 0H35.63l-3.035 6.05h2.53L38.157 0Z" fill="#222"/></svg>
